X:2527
T:Heathery Cruach
O:england
M:4/4
L:1/8
S:Altan
D:Island Angel
H:What's a cruach?
K:D
(3ABc | d2 AG FDDE| FDAF E2 (3ABC | d2 AG FDAD| FGAF D2 (3gfe |
d2 AG FDDE| FDAF E2 FG| ABAG FDDE|1 FGAF D2 :|2 FGAF D2 ed|
|: cA (3AAA cAGE| cBcd efed| cA (3AAA cAGE| FGAF D2 ed| cA (3AAA
cAGE| cBcd e2 de| fded cAAG|1 FGAF D2 ed :|2 FGAF D4||


